X: 40193
T: Timmy's
R: reel
M: 4/4
K: Gmajor
DDBA GGGE|DDBA GGGG|EAcB ABAG|~E2AG FGFE|
DDBA GGGE|DDBA GGGF|EAcB ABAG|FDEF G2G2:|
B2Bc ~d2 ef|g2fg ee d2|e2 ce d2 Bd|cBAG A2A2|
B2Bc ~d2 ef|g2fg e2 d2|eece d2 g2|fdcA G2G2:|

